icons/dark/node-modules-folder-expanded.svg

<svg width="16" height="16" viewBox="0 0 16 16" fill="none" xmlns="http://www.w3.org/2000/svg">
<path fill-rule="evenodd" clip-rule="evenodd" d="M13 3.5V6H15.151L15.634 6.629L13 13.629L12.516 14H8.74284C8.99647 13.6929 9.2174 13.3578 9.4003 13H12.133L14.5 7H8.74284C8.52467 6.73583 8.2823 6.49238 8.01914 6.27304L8.14602 6.146L8.50002 6H12V4H6.5L6.146 3.854L5.293 3H1V6.25716C0.62057 6.57052 0.283885 6.93379 0 7.33692V2.5L0.5 2H5.5L5.854 2.146L6.707 3H12.5L13 3.5Z" fill="#C5C5C5"/>
<path d="M4.5 6.69375C4.39875 6.69375 4.29375 6.72 4.2075 6.76875L1.4175 8.38125C1.2375 8.48625 1.125 8.68125 1.125 8.89125V12.1087C1.125 12.3187 1.2375 12.5137 1.4175 12.6187L2.14875 13.0387C2.505 13.2112 2.625 13.215 2.79 13.215C3.315 13.215 3.61875 12.8962 3.61875 12.3412V9.165C3.61875 9.12 3.58125 9.0825 3.53625 9.0825H3.1875C3.13875 9.0825 3.10125 9.12 3.10125 9.165V12.3412C3.10125 12.5887 2.84625 12.8325 2.4375 12.6262L1.66875 12.1875C1.65612 12.1786 1.6458 12.1668 1.63863 12.1531C1.63146 12.1394 1.62764 12.1242 1.6275 12.1087V8.89125C1.6275 8.8575 1.6425 8.8275 1.66875 8.8125L4.45875 7.20375C4.48125 7.18875 4.51875 7.18875 4.54125 7.20375L7.33125 8.8125C7.3575 8.8275 7.3725 8.8575 7.3725 8.89125V12.1087C7.3725 12.1387 7.3575 12.1687 7.33125 12.1875L4.54125 13.7962C4.51875 13.8112 4.48125 13.8112 4.455 13.7962L3.75 13.3687C3.72 13.3575 3.69 13.3537 3.67125 13.365C3.4725 13.4775 3.435 13.5 3.25125 13.5562C3.20625 13.5712 3.135 13.5975 3.2775 13.6762L4.2075 14.2275C4.2975 14.28 4.395 14.3062 4.5 14.3062C4.605 14.3062 4.7025 14.28 4.7925 14.2275L7.5825 12.6187C7.7625 12.5137 7.875 12.3187 7.875 12.1087V8.89125C7.875 8.68125 7.7625 8.48625 7.5825 8.38125L4.7925 6.76875C4.70625 6.72 4.605 6.69375 4.5 6.69375ZM5.25 9C4.455 9 3.97875 9.33375 3.97875 9.89625C3.97875 10.5 4.45125 10.6762 5.21625 10.7512C6.1275 10.8412 6.19875 10.9762 6.19875 11.1562C6.19875 11.4675 5.9475 11.5987 5.3625 11.5987C4.62 11.5987 4.4625 11.415 4.40625 11.0475C4.4023 11.0285 4.39196 11.0114 4.37694 10.9992C4.36193 10.9869 4.34315 10.9801 4.32375 10.98H3.96375C3.91875 10.98 3.885 11.0137 3.885 11.0625C3.885 11.5275 4.14 12.09 5.3625 12.09C6.24375 12.09 6.75 11.7412 6.75 11.1337C6.75 10.53 6.345 10.3725 5.48625 10.2562C4.62 10.1437 4.53375 10.0837 4.53375 9.88125C4.53375 9.7125 4.60875 9.4875 5.25 9.4875C5.8125 9.4875 6.03375 9.61125 6.12 9.9975C6.1275 10.035 6.16125 10.0612 6.19875 10.0612H6.5625C6.58125 10.0612 6.60375 10.0537 6.61875 10.035C6.63375 10.02 6.645 9.9975 6.6375 9.975C6.585 9.3075 6.1425 9 5.25 9Z" fill="#C5C5C5"/>
</svg>

<svg xmlns="http://www.w3.org/2000/svg" width="16" height="16" fill="#c5c5c5" xmlns:v="https://vecta.io/nano"><path fill-rule="evenodd" d="M13 3.5V6h2.151l.483.629-2.634 7-.484.371H8.743c.254-.307.475-.642.657-1h2.733L14.5 7H8.743c-.218-.264-.461-.508-.724-.727l.127-.127L8.5 6H12V4H6.5l-.354-.146L5.293 3H1v3.257a5.53 5.53 0 0 0-1 1.08V2.5L.5 2h5l.354.146.853.854H12.5l.5.5z"/><path d="M4.5 6.694c-.101 0-.206.026-.293.075l-2.79 1.612a.59.59 0 0 0-.292.51v3.217a.59.59 0 0 0 .293.51l.731.42c.356.172.476.176.641.176.525 0 .829-.319.829-.874V9.165c0-.045-.038-.082-.083-.082h-.349c-.049 0-.086.037-.086.082v3.176c0 .247-.255.491-.664.285l-.769-.439c-.013-.009-.023-.021-.03-.034s-.011-.029-.011-.044V8.891c0-.034.015-.064.041-.079l2.79-1.609c.022-.015.06-.015.082 0l2.79 1.609c.026.015.041.045.041.079v3.217c0 .03-.015.06-.041.079l-2.79 1.609c-.022.015-.06.015-.086 0l-.705-.428c-.03-.011-.06-.015-.079-.004-.199.112-.236.135-.42.191-.045.015-.116.041.026.12l.93.551a.57.57 0 0 0 .293.079.57.57 0 0 0 .293-.079l2.79-1.609a.59.59 0 0 0 .293-.51V8.891a.59.59 0 0 0-.293-.51l-2.79-1.612c-.086-.049-.187-.075-.293-.075zM5.25 9c-.795 0-1.271.334-1.271.896 0 .604.473.78 1.237.855.911.09.983.225.983.405 0 .311-.251.442-.836.442-.742 0-.9-.184-.956-.551-.004-.019-.014-.036-.029-.048s-.034-.019-.053-.019h-.36c-.045 0-.079.034-.079.082 0 .465.255 1.027 1.478 1.027.881 0 1.388-.349 1.388-.956s-.405-.761-1.264-.877c-.866-.112-.952-.172-.952-.375 0-.169.075-.394.716-.394.563 0 .784.124.87.51a.08.08 0 0 0 .079.064h.364c.019 0 .041-.008.056-.026s.026-.037.019-.06C6.585 9.308 6.143 9 5.25 9z"/></svg>
